docs/_site/assets/images/src/Social/Facebook.svg

<svg width="20" height="20" viewBox="0 0 20 20" fill="none" xmlns="http://www.w3.org/2000/svg">
<path d="M11.5489 20V10.8777H14.6096L15.0688 7.32156H11.5489V5.05147C11.5489 4.0222 11.8335 3.32076 13.3112 3.32076L15.1927 3.31999V0.13923C14.8673 0.0969453 13.7504 0 12.4504 0C9.7358 0 7.87733 1.65697 7.87733 4.69927V7.32156H4.80731V10.8777H7.87733V20H11.5489Z" fill="#EAEAEA"/>
</svg>

<svg width="20" height="20" fill="none" xmlns="http://www.w3.org/2000/svg"><path d="M11.549 20v-9.122h3.06l.46-3.556h-3.52v-2.27c0-1.03.285-1.731 1.762-1.731l1.882-.001V.14A25.512 25.512 0 0012.45 0C9.736 0 7.877 1.657 7.877 4.7v2.622h-3.07v3.556h3.07V20h3.672z" fill="#EAEAEA"/></svg>
